images/linkedin-icon.svg

<svg width="24" height="24" viewBox="0 0 24 24" fill="none" xmlns="http://www.w3.org/2000/svg">
<path fill-rule="evenodd" clip-rule="evenodd" d="M10.9432 9.5752H13.9144V11.0552C14.3424 10.204 15.44 9.4392 17.0888 9.4392C20.2496 9.4392 21 11.1336 21 14.2424V20H17.8V14.9504C17.8 13.18 17.372 12.1816 16.2824 12.1816C14.7712 12.1816 14.1432 13.2576 14.1432 14.9496V20H10.9432V9.5752V9.5752ZM5.456 19.864H8.656V9.4392H5.456V19.864V19.864ZM9.1144 6.04C9.11452 6.30822 9.06132 6.57379 8.95791 6.82127C8.85449 7.06875 8.70292 7.29321 8.512 7.4816C8.12512 7.8661 7.60145 8.08132 7.056 8.08C6.51151 8.07963 5.98905 7.86496 5.6016 7.4824C5.41137 7.29337 5.26031 7.06866 5.15707 6.82115C5.05384 6.57363 5.00046 6.30818 5 6.04C5 5.4984 5.216 4.98 5.6024 4.5976C5.98951 4.21453 6.51219 3.99976 7.0568 4C7.6024 4 8.1256 4.2152 8.512 4.5976C8.8976 4.98 9.1144 5.4984 9.1144 6.04Z" fill="#595A7E"/>
</svg>

<svg xmlns="http://www.w3.org/2000/svg" width="24" height="24" fill="none"><path fill="#595A7E" fill-rule="evenodd" d="M10.943 9.575h2.971v1.48c.428-.851 1.526-1.616 3.175-1.616 3.16 0 3.911 1.695 3.911 4.803V20h-3.2v-5.05c0-1.77-.428-2.768-1.518-2.768-1.51 0-2.139 1.076-2.139 2.768V20h-3.2V9.575ZM5.456 19.864h3.2V9.439h-3.2v10.425ZM9.114 6.04a2.024 2.024 0 0 1-.602 1.442 2.072 2.072 0 0 1-2.91 0A2.039 2.039 0 0 1 5 6.04c0-.542.216-1.06.602-1.442a2.066 2.066 0 0 1 2.91 0c.386.382.602.9.602 1.442Z" clip-rule="evenodd"/></svg>
